X:39
M:2/4
L:1/8
Q:1/4=140
K:F
|:c>cc>c|b3 a|g>fe>d|c>BA>G|A>Fc>A|f2 ed|c>BA>G|F4:|

